betcity/landings/newyear_100000/dist/img/page/logo.svg

<svg width="384" height="50" viewBox="0 0 384 50" fill="none" xmlns="http://www.w3.org/2000/svg">
<path d="M68.9342 0.781372H110.273L108.485 11.9442H81.0005L79.995 18.307H96.4187L94.5193 29.8047H78.2074L77.0901 37.3954H107.256L105.357 49.228H61.2251L68.9342 0.781372Z" fill="white"/>
<path d="M131.277 12.7256H113.96L115.859 0.781372H164.348L162.337 12.7256H145.02L139.21 49.228H125.468L131.277 12.7256Z" fill="white"/>
<path d="M165.354 27.3489C164.795 11.6093 175.744 0 190.716 0C208.145 0 213.284 11.6093 213.843 17.1907H199.765C199.095 15.8512 196.637 12.3907 191.163 12.3907C183.453 12.3907 179.096 18.9768 179.431 26.6791C179.655 32.9303 183.118 37.6187 189.151 37.6187C194.738 37.6187 197.196 34.3815 197.978 33.1536H211.943C211.05 37.5071 205.352 50.0094 189.598 50.0094C175.186 50.0094 165.801 40.7443 165.354 27.3489Z" fill="white"/>
<path d="M223.786 0.781372H237.64L233.059 29.9163L259.091 0.781372H272.945L265.236 49.228H251.382L255.963 20.2047L229.931 49.228H216.077L223.786 0.781372Z" fill="white"/>
<path d="M295.067 12.7256H277.75L279.649 0.781372H328.138L326.239 12.7256H308.921L303.112 49.228H289.369L295.067 12.7256Z" fill="white"/>
<path d="M334.953 0.781372H348.807L344.114 30.0279L370.146 0.893H384L376.291 49.3396H362.437L367.018 20.3163L340.986 49.3396H327.132L334.953 0.781372Z" fill="white"/>
<path d="M37.2046 18.7538H24.9148L25.9203 12.8375H55.0807L56.98 0.893311H13.854L11.0608 18.7538H1.78761L0 29.6934H9.27322L6.14491 49.2283H34.7467C48.1537 49.2283 57.0918 43.4236 56.6449 31.591C56.4214 23.3306 49.4944 18.7538 37.2046 18.7538ZM35.9756 37.1725H21.8982L23.1272 29.6934H37.6515C40.5564 29.6934 42.0088 30.698 42.0088 32.5957C42.2323 35.6097 39.7743 37.1725 35.9756 37.1725Z" fill="white"/>
</svg>

<svg width="384" height="50" fill="none" xmlns="http://www.w3.org/2000/svg"><path d="M68.934.781h41.339l-1.788 11.163H81.001l-1.006 6.363h16.424l-1.9 11.498H78.207l-1.117 7.59h30.166l-1.899 11.833H61.225L68.935.781Zm62.343 11.945H113.96L115.859.78h48.489l-2.011 11.945H145.02l-5.81 36.502h-13.742l5.809-36.502Zm34.077 14.623C164.795 11.609 175.744 0 190.716 0c17.429 0 22.568 11.61 23.127 17.19h-14.078c-.67-1.339-3.128-4.8-8.602-4.8-7.71 0-12.067 6.587-11.732 14.29.224 6.25 3.687 10.939 9.72 10.939 5.587 0 8.045-3.237 8.827-4.465h13.965c-.893 4.353-6.591 16.855-22.345 16.855-14.412 0-23.797-9.265-24.244-22.66ZM223.786.781h13.854l-4.581 29.135L259.091.781h13.854l-7.709 48.447h-13.854l4.581-29.023-26.032 29.023h-13.854L223.786.781Zm71.281 11.945H277.75L279.649.78h48.489l-1.899 11.945h-17.318l-5.809 36.502h-13.743l5.698-36.502ZM334.953.781h13.854l-4.693 29.247L370.146.893H384l-7.709 48.447h-13.854l4.581-29.024-26.032 29.024h-13.854L334.953.78ZM37.205 18.754h-12.29l1.005-5.917h29.16L56.98.893H13.854l-2.793 17.86H1.788L0 29.694h9.273L6.145 49.228h28.602c13.407 0 22.345-5.804 21.898-17.637-.224-8.26-7.15-12.837-19.44-12.837Zm-1.23 18.418H21.899l1.23-7.479H37.65c2.905 0 4.358 1.005 4.358 2.903.223 3.014-2.235 4.577-6.033 4.577Z" fill="#fff"/></svg>
